icons/frequently-contact.svg

<svg width="25" height="24" viewBox="0 0 25 24" fill="none" xmlns="http://www.w3.org/2000/svg">
<path d="M9.86446 9.45768C10.3281 9.16743 10.8765 9 11.4647 9C13.1312 9 14.477 10.346 14.477 12C14.477 13.654 13.1312 15 11.4647 15C10.3495 15 9.37585 14.3972 8.8542 13.4981C8.57702 13.0204 7.96508 12.8579 7.48739 13.1351C7.00969 13.4122 6.84714 14.0242 7.12432 14.5019C7.99013 15.994 9.60974 17 11.4647 17C14.23 17 16.477 14.7643 16.477 12C16.477 9.2357 14.23 7 11.4647 7C10.3455 7 9.3112 7.36664 8.47705 7.98514V7.5C8.47705 6.94772 8.02934 6.5 7.47705 6.5C6.92477 6.5 6.47705 6.94772 6.47705 7.5V10C6.47705 10.4767 6.81351 10.8871 7.28094 10.9806L9.78094 11.4806C10.3225 11.5889 10.8493 11.2377 10.9576 10.6961C11.0659 10.1546 10.7147 9.62773 10.1732 9.51942L9.86446 9.45768Z" fill="#9AA1B4"/>
<path fill-rule="evenodd" clip-rule="evenodd" d="M20.4771 8V16H21.4771C22.0293 16 22.4771 16.4477 22.4771 17C22.4771 17.5523 22.0293 18 21.4771 18H20.4461C20.2001 19.9732 18.5169 21.5 16.477 21.5H6.47705C4.26791 21.5 2.47705 19.7091 2.47705 17.5V6.5C2.47705 4.29086 4.26791 2.5 6.47705 2.5H16.4771C18.5169 2.5 20.2001 4.02684 20.4461 6H21.4771C22.0293 6 22.4771 6.44772 22.4771 7C22.4771 7.55229 22.0293 8 21.4771 8H20.4771ZM18.414 6H17.9771C17.4248 6 16.9771 6.44772 16.9771 7C16.9771 7.55228 17.4248 8 17.9771 8H18.4771L18.477 16H17.9771C17.4248 16 16.9771 16.4477 16.9771 17C16.9771 17.5523 17.4248 18 17.9771 18H18.414C18.192 18.8626 17.409 19.5 16.477 19.5H6.47705C5.37248 19.5 4.47705 18.6046 4.47705 17.5L4.47705 6.5C4.47705 5.39543 5.37248 4.5 6.47705 4.5L16.4771 4.5C17.409 4.5 18.192 5.13739 18.414 6Z" fill="#9AA1B4"/>
</svg>

<?xml version="1.0" encoding="utf-8"?>
<!-- Generator: Adobe Illustrator 22.1.0, SVG Export Plug-In . SVG Version: 6.00 Build 0)  -->
<svg version="1.1" id="Layer_1" xmlns="http://www.w3.org/2000/svg" xmlns:xlink="http://www.w3.org/1999/xlink" x="0px" y="0px"
	 viewBox="0 0 25 24" style="enable-background:new 0 0 25 24;" xml:space="preserve">
<style type="text/css">
	.st0{fill:#9AA1B4;}
</style>
<g>
	<path class="st0" d="M21.5,16h-1V8h1c0.6,0,1-0.4,1-1s-0.4-1-1-1h-1c-0.2-2-1.9-3.5-4-3.5h-10c-2.2,0-4,1.8-4,4v11c0,2.2,1.8,4,4,4
		h10c2,0,3.7-1.5,4-3.5h1c0.6,0,1-0.4,1-1S22,16,21.5,16z M18.5,16H18c-0.6,0-1,0.4-1,1s0.4,1,1,1h0.4c-0.2,0.9-1,1.5-1.9,1.5h-10
		c-1.1,0-2-0.9-2-2v-11c0-1.1,0.9-2,2-2h10c0.9,0,1.7,0.6,1.9,1.5H18c-0.6,0-1,0.4-1,1s0.4,1,1,1h0.5L18.5,16z"/>
	<path class="st0" d="M11.5,7c-1.1,0-2.2,0.4-3,1V7.5c0-0.6-0.4-1-1-1s-1,0.4-1,1V10c0,0.5,0.3,0.9,0.8,1l2.5,0.5
		c0.5,0.1,1.1-0.2,1.2-0.8c0.1-0.5-0.2-1.1-0.8-1.2L9.9,9.5c0.5-0.3,1-0.5,1.6-0.5c1.7,0,3,1.3,3,3s-1.3,3-3,3
		c-1.1,0-2.1-0.6-2.6-1.5C8.6,13,8,12.9,7.5,13.1C7,13.4,6.8,14,7.1,14.5C8,16,9.6,17,11.5,17c2.8,0,5-2.2,5-5S14.2,7,11.5,7z"/>
</g>
</svg>
